images/logo.svg

<?xml version="1.0" standalone="no"?>
<!DOCTYPE svg PUBLIC "-//W3C//DTD SVG 1.0//EN" "http://www.w3.org/TR/2001/REC-SVG-20010904/DTD/svg10.dtd">
<svg xmlns="http://www.w3.org/2000/svg" xmlns:xlink="http://www.w3.org/1999/xlink" id="body_1" width="205" height="154">

<g transform="matrix(0.8038585 0 0 0.8038585 1.607717 -11.106911)">
	<g>
		<g>
            <path d="M-1.47058 60.38193L252.75552 60.38193L252.75552 149.02112L-1.470581 149.02112L-1.470581 60.381927L-1.47058 60.38193z" stroke="#000000" stroke-width="1" fill="none" stroke-opacity="0" />
            <path d="M30.2872 73.7135L30.2872 127.75127L18.39526 127.75127L18.39526 110.4815L23.04039 103.79713L2.0435905 103.79713L2.0435905 127.937546L10.21942 142.6063L46.638863 142.6063L46.638863 65.914406L25.642063 65.914406L30.287193 73.71349L30.287203 73.7135L30.2872 73.7135zM52.21402 65.91441L52.21402 142.6063L68.56569 142.6063L68.56569 117.166855L80.45763 117.166855L80.45763 142.6063L96.8083 142.6063L96.8083 80.77043L88.81886 65.9144L52.214024 65.9144L52.214012 65.9144zM80.45763 103.797134L68.56569 103.797134L68.56569 80.77045L80.45763 80.77045L80.45763 103.797134zM98.29553 65.91441L102.754265 73.7135L102.754265 142.6063L148.09315 142.6063L148.09315 80.77043L139.1747 65.9144L98.29553 65.9144L98.29553 65.914406zM131.74149 127.75127L119.10593 127.75127L119.10593 80.77043L131.74149 80.77043L131.74149 127.75127zM187.85887 80.77043L187.85887 65.9144L149.39398 65.9144L154.03911 73.713486L154.03911 127.75125L162.95757 142.60628L187.85887 142.60628L187.85887 122.73748L181.54109 127.75125L170.39078 127.75125L170.39078 110.48148L187.85887 110.48148L187.85887 95.62545L170.39078 95.62545L170.39078 80.77042L187.85887 80.77042L187.85887 80.770424zM3.8986359 92.28328L4.907406 92.28328L4.907406 85.7075L7.437306 85.7075L7.437306 84.81193L1.3677359 84.81193L1.3677359 85.7075L3.8986359 85.7075L3.8986359 92.28328z" stroke="#000000" stroke-width="1" fill="#000000" fill-rule="nonzero" stroke-opacity="0" />
            <path d="M9.35492 87.95541C 9.35492 87.736404 9.33389 86.78641 9.33389 86.096405L9.33389 86.096405L9.35492 86.096405L11.468141 92.38441L12.472671 92.38441L14.585891 86.08641L14.606921 86.08641C 14.606921 86.78641 14.585891 87.73641 14.585891 87.955414L14.585891 87.955414L14.585891 92.384415L15.568391 92.384415L15.568391 84.884415L14.125191 84.884415L11.990941 91.22441L11.969911 91.22441L9.825641 84.884415L8.371421 84.884415L8.371421 92.384415L9.354921 92.384415L9.354921 87.955414L9.35492 87.95541z" stroke="#000000" stroke-width="1" fill="#000000" fill-rule="nonzero" stroke-opacity="0" />
            <path d="M-2.26112 80.76768L18.32695 80.76768L18.32695 93.70875L-2.26112 93.70875z" stroke="#000000" stroke-width="1" fill="#FFFFFF" fill-rule="nonzero" stroke-opacity="0" />
            <path d="M19.50341 146.9436L50.97374 146.9436L50.97374 159.59056L19.50341 159.59056z" stroke="#000000" stroke-width="1" fill="#FFFFFF" fill-rule="nonzero" stroke-opacity="0" />
		</g>
        <path d="M30.16394 65.76785L46.856133 65.76785L46.856133 142.87039L30.163942 142.87039L30.163942 65.767845L30.16394 65.76785z" stroke="#000000" stroke-width="1" fill="#00A36C" fill-rule="nonzero" stroke-opacity="0" />
        <path transform="matrix(-1 8.742278E-08 -8.742278E-08 -1 55.226402 140.28438)"  d="M24.28749 74.50133L24.28749 65.78297L30.938961 74.50133L24.28749 74.50133z" stroke="#000000" stroke-width="1" fill="#00A36C" fill-rule="nonzero" stroke-opacity="0" />
	</g>
</g>
</svg>

<svg xmlns="http://www.w3.org/2000/svg" viewBox="-2.26 60.38 255.02 99.21">
 <g>
  <title>Layer 1</title>
  <g stroke="null" id="svg_1" clip-rule="evenodd" fill-rule="evenodd">
   <path stroke="null" id="svg_2" d="m-1.47058,60.38193l254.2261,0l0,88.63919l-254.2261,0l0,-88.63919z" fill-opacity="0" fill="#fff"/>
   <path stroke="null" id="svg_3" d="m30.2872,73.7135l0,54.03776l-11.89194,0l0,-17.26977l4.64513,-6.68437l-20.9968,0l0,24.14042l8.17583,14.66875l36.41944,0l0,-76.69189l-20.9968,0l4.64513,7.79909l0.00001,0.00001zm21.92682,-7.79909l0,76.69189l16.35167,0l0,-25.43944l11.89194,0l0,25.43944l16.35067,0l0,-61.83586l-7.98943,-14.85603l-36.60484,0l-0.00001,0zm28.24361,37.88272l-11.89194,0l0,-23.02669l11.89194,0l0,23.02669zm17.83791,-37.88272l4.45873,7.79909l0,68.89279l45.33889,0l0,-61.83586l-8.91846,-14.85603l-40.87916,0l0,0.00001zm33.44595,61.83685l-12.63556,0l0,-46.98083l12.63556,0l0,46.98083zm56.11739,-46.98083l0,-14.85603l-38.46489,0l4.64513,7.79909l0,54.03776l8.91846,14.85503l24.9013,0l0,-19.8688l-6.31778,5.01377l-11.15031,0l0,-17.26977l17.46809,0l0,-14.85603l-17.46809,0l0,-14.85503l17.46809,0l0,0.00001zm-183.96023,11.51285l1.00877,0l0,-6.57578l2.5299,0l0,-0.89557l-6.06957,0l0,0.89557l2.5309,0l0,6.57578z"/>
   <path stroke="null" id="svg_4" d="m9.35492,87.95541c0,-0.219 -0.02103,-1.169 -0.02103,-1.859l0.02103,0l2.11322,6.288l1.00453,0l2.11322,-6.298l0.02103,0c0,0.7 -0.02103,1.65 -0.02103,1.869l0,4.429l0.9825,0l0,-7.5l-1.4432,0l-2.13425,6.34l-0.02103,0l-2.14427,-6.34l-1.45422,0l0,7.5l0.9835,0l0,-4.429z"/>
   <rect stroke="null" id="svg_7" height="12.94107" width="20.58807" y="80.76768" x="-2.26112" fill="#ffffff"/>
   <rect fill="white" stroke="null" id="svg_9" height="12.64696" width="31.47033" y="146.94361" x="19.50341"/>
  </g>
  <path fill="#00a36c" opacity="undefined" d="m30.16394,65.76785l16.69219,0l0,77.10255l-16.69219,0l0,-77.10255z" id="svg_5" stroke="null"/>
  <path id="svg_6" d="m24.28749,74.50133l0,-8.71836l6.65147,8.71836l-6.65147,0z" fill="#00a36c" stroke="null" transform="rotate(-180 27.6132 70.1422)"/>
 </g>

</svg>
